icons/py.svg

<?xml version="1.0" encoding="UTF-8"?>
<svg xmlns="http://www.w3.org/2000/svg" xmlns:xlink="http://www.w3.org/1999/xlink" width="32pt" height="32pt"
    viewBox="0 0 32 32" version="1.0">
    <defs>
        <linearGradient id="linear0" gradientUnits="userSpaceOnUse" x1="70.252" y1="1237.5" x2="170.66" y2="1151.1"
            gradientTransform="matrix(0.14075,0,0,-0.142,-7.30375,179.52)">
            <stop offset="0" style="stop-color:rgb(35.294118%,62.352941%,83.137255%);stop-opacity:1;" />
            <stop offset="1" style="stop-color:rgb(18.823529%,41.176471%,59.607843%);stop-opacity:1;" />
        </linearGradient>
        <linearGradient id="linear1" gradientUnits="userSpaceOnUse" x1="209.47" y1="1098.8" x2="173.62" y2="1149.5"
            gradientTransform="matrix(0.14075,0,0,-0.142,-7.30375,179.52)">
            <stop offset="0" style="stop-color:rgb(100%,83.137255%,23.137255%);stop-opacity:1;" />
            <stop offset="1" style="stop-color:rgb(100%,90.980392%,45.098039%);stop-opacity:1;" />
        </linearGradient>
        <filter id="alpha" filterUnits="objectBoundingBox" x="0%" y="0%" width="100%" height="100%">
            <feColorMatrix type="matrix" in="SourceGraphic" values="0 0 0 0 1 0 0 0 0 1 0 0 0 0 1 0 0 0 1 0" />
        </filter>
        <mask id="mask0">
            <g filter="url(#alpha)">
                <rect x="0" y="0" width="32" height="32"
                    style="fill:rgb(0%,0%,0%);fill-opacity:0.443137;stroke:none;" />
            </g>
        </mask>
        <radialGradient id="radial0" gradientUnits="userSpaceOnUse" cx="1825.7" cy="444.45" fx="1825.7" fy="444.45"
            r="26.743" gradientTransform="matrix(0,-0.06,-0.26375,0,133.245,139.395)">
            <stop offset="0" style="stop-color:rgb(72.156863%,72.156863%,72.156863%);stop-opacity:0.498039;" />
            <stop offset="1" style="stop-color:rgb(49.803922%,49.803922%,49.803922%);stop-opacity:0;" />
        </radialGradient>
        <clipPath id="clip1">
            <rect x="0" y="0" width="32" height="32" />
        </clipPath>
        <g id="surface5" clip-path="url(#clip1)">
            <path style=" stroke:none;fill-rule:nonzero;fill:url(#radial0);"
                d="M 24.328125 29.898438 C 24.328125 30.785156 20.625 31.503906 16.054688 31.503906 C 11.484375 31.503906 7.78125 30.785156 7.78125 29.898438 C 7.78125 29.015625 11.484375 28.296875 16.054688 28.296875 C 20.625 28.296875 24.328125 29.015625 24.328125 29.898438 Z M 24.328125 29.898438 " />
        </g>
    </defs>
    <g id="surface1">
        <path style=" stroke:none;fill-rule:nonzero;fill:url(#linear0);"
            d="M 15.847656 3.0625 C 14.792969 3.066406 13.785156 3.15625 12.898438 3.3125 C 10.285156 3.773438 9.8125 4.742188 9.8125 6.523438 L 9.8125 8.875 L 15.984375 8.875 L 15.984375 9.660156 L 7.496094 9.660156 C 5.699219 9.660156 4.128906 10.738281 3.636719 12.789062 C 3.070312 15.140625 3.046875 16.609375 3.636719 19.0625 C 4.078125 20.890625 5.125 22.195312 6.917969 22.195312 L 9.042969 22.195312 L 9.042969 19.375 C 9.042969 17.335938 10.804688 15.539062 12.898438 15.539062 L 19.0625 15.539062 C 20.78125 15.539062 22.152344 14.125 22.152344 12.402344 L 22.152344 6.523438 C 22.152344 4.851562 20.738281 3.59375 19.0625 3.3125 C 18.003906 3.136719 16.902344 3.058594 15.847656 3.0625 Z M 12.507812 4.953125 C 13.148438 4.953125 13.667969 5.484375 13.667969 6.132812 C 13.667969 6.78125 13.148438 7.308594 12.507812 7.308594 C 11.871094 7.308594 11.351562 6.78125 11.351562 6.132812 C 11.351562 5.484375 11.871094 4.953125 12.507812 4.953125 Z M 12.507812 4.953125 " />
        <path style=" stroke:none;fill-rule:nonzero;fill:url(#linear1);"
            d="M 22.921875 9.660156 L 22.921875 12.402344 C 22.921875 14.527344 21.117188 16.316406 19.0625 16.316406 L 12.898438 16.316406 C 11.207031 16.316406 9.8125 17.761719 9.8125 19.453125 L 9.8125 25.332031 C 9.8125 27.003906 11.265625 27.988281 12.898438 28.46875 C 14.851562 29.042969 16.726562 29.144531 19.0625 28.46875 C 20.617188 28.019531 22.152344 27.113281 22.152344 25.332031 L 22.152344 22.976562 L 15.984375 22.976562 L 15.984375 22.195312 L 25.238281 22.195312 C 27.03125 22.195312 27.699219 20.941406 28.324219 19.0625 C 28.96875 17.128906 28.941406 15.269531 28.324219 12.789062 C 27.882812 11.003906 27.035156 9.660156 25.238281 9.660156 Z M 19.453125 24.546875 C 20.09375 24.546875 20.609375 25.070312 20.609375 25.71875 C 20.609375 26.371094 20.09375 26.898438 19.453125 26.898438 C 18.816406 26.898438 18.292969 26.371094 18.292969 25.71875 C 18.292969 25.070312 18.816406 24.546875 19.453125 24.546875 Z M 19.453125 24.546875 " />
        <use xlink:href="#surface5" mask="url(#mask0)" />
    </g>
</svg>

<?xml version="1.0" encoding="UTF-8"?>
<svg width="32pt" height="32pt" version="1.0" viewBox="0 0 32 32" xmlns="http://www.w3.org/2000/svg"
    xmlns:xlink="http://www.w3.org/1999/xlink">
    <defs>
        <linearGradient id="e" x1="70.252" x2="170.66" y1="1237.5" y2="1151.1"
            gradientTransform="matrix(.14075 0 0 -.142 -7.3038 179.52)" gradientUnits="userSpaceOnUse">
            <stop stop-color="#5a9ed4" offset="0" />
            <stop stop-color="#2f6997" offset="1" />
        </linearGradient>
        <linearGradient id="d" x1="209.47" x2="173.62" y1="1098.8" y2="1149.5"
            gradientTransform="matrix(.14075 0 0 -.142 -7.3038 179.52)" gradientUnits="userSpaceOnUse">
            <stop stop-color="#ffd43b" offset="0" />
            <stop stop-color="#ffe772" offset="1" />
        </linearGradient>
        <filter id="g" x="0%" y="0%" width="100%" height="100%">
            <feColorMatrix in="SourceGraphic" values="0 0 0 0 1 0 0 0 0 1 0 0 0 0 1 0 0 0 1 0" />
        </filter>
        <mask id="c">
            <g filter="url(#g)">
                <rect width="32" height="32" fill-opacity=".44314" />
            </g>
        </mask>
        <radialGradient id="b" cx="1825.7" cy="444.45" r="26.743"
            gradientTransform="matrix(0 -.06 -.26375 0 133.24 139.4)" gradientUnits="userSpaceOnUse">
            <stop stop-color="#b8b8b8" stop-opacity=".49804" offset="0" />
            <stop stop-color="#7f7f7f" stop-opacity="0" offset="1" />
        </radialGradient>
        <clipPath id="f">
            <rect width="32" height="32" />
        </clipPath>
        <g id="a" clip-path="url(#f)">
            <path
                d="m24.328 29.898c0 0.88672-3.7031 1.6055-8.2734 1.6055-4.5703 0-8.2734-0.71875-8.2734-1.6055 0-0.88281 3.7031-1.6016 8.2734-1.6016 4.5703 0 8.2734 0.71875 8.2734 1.6016z"
                fill="url(#b)" />
        </g>
    </defs>
    <path
        d="m15.848 3.0625c-1.0547 0.003906-2.0625 0.09375-2.9492 0.25-2.6133 0.46094-3.0859 1.4297-3.0859 3.2109v2.3516h6.1719v0.78516h-8.4883c-1.7969 0-3.3672 1.0781-3.8594 3.1289-0.56641 2.3516-0.58984 3.8203 0 6.2734 0.44141 1.8281 1.4883 3.1328 3.2812 3.1328h2.125v-2.8203c0-2.0391 1.7617-3.8359 3.8555-3.8359h6.1641c1.7188 0 3.0898-1.4141 3.0898-3.1367v-5.8789c0-1.6719-1.4141-2.9297-3.0898-3.2109-1.0586-0.17578-2.1602-0.25391-3.2148-0.25zm-3.3398 1.8906c0.64063 0 1.1602 0.53125 1.1602 1.1797 0 0.64844-0.51953 1.1758-1.1602 1.1758-0.63672 0-1.1562-0.52734-1.1562-1.1758 0-0.64844 0.51953-1.1797 1.1562-1.1797z"
        fill="url(#e)" />
    <path
        d="m22.922 9.6602v2.7422c0 2.125-1.8047 3.9141-3.8594 3.9141h-6.1641c-1.6914 0-3.0859 1.4453-3.0859 3.1367v5.8789c0 1.6719 1.4531 2.6562 3.0859 3.1367 1.9531 0.57422 3.8281 0.67578 6.1641 0 1.5547-0.44922 3.0898-1.3555 3.0898-3.1367v-2.3555h-6.168v-0.78125h9.2539c1.793 0 2.4609-1.2539 3.0859-3.1328 0.64453-1.9336 0.61719-3.793 0-6.2734-0.44141-1.7852-1.2891-3.1289-3.0859-3.1289zm-3.4688 14.887c0.64062 0 1.1562 0.52344 1.1562 1.1719 0 0.65234-0.51562 1.1797-1.1562 1.1797-0.63672 0-1.1602-0.52734-1.1602-1.1797 0-0.64844 0.52344-1.1719 1.1602-1.1719z"
        fill="url(#d)" />
    <use mask="url(#c)" xlink:href="#a" />
</svg>
